WeChatSwift/Resources/Icons/icons_filled_close.svg

<svg height="24" viewBox="0 0 24 24" width="24" xmlns="http://www.w3.org/2000/svg"><path d="m12 12v-8h2v8h8v2h-8v8h-2v-8h-8v-2z" fill-rule="evenodd" transform="matrix(.70710678 .70710678 -.70710678 .70710678 12 -6.384776)"/></svg>

<?xml version="1.0" encoding="UTF-8"?>
<svg width="24px" height="24px" viewBox="0 0 24 24" version="1.1" xmlns="http://www.w3.org/2000/svg" xmlns:xlink="http://www.w3.org/1999/xlink">
    <!-- Generator: Sketch 52.2 (67145) - http://www.bohemiancoding.com/sketch -->
    <title>icons_filled_close</title>
    <desc>Created with Sketch.</desc>
    <g id="icons_filled_close" stroke="none" stroke-width="1" fill="none" fill-rule="evenodd">
        <g id="common_icons_close" transform="translate(-1.000000, -1.000000)" fill="#000000">
            <path d="M12,12 L12,4 L14,4 L14,12 L22,12 L22,14 L14,14 L14,22 L12,22 L12,14 L4,14 L4,12 L12,12 Z" id="Rectangle-47" transform="translate(13.000000, 13.000000) rotate(45.000000) translate(-13.000000, -13.000000) "></path>
        </g>
    </g>
</svg>
